X:1
T:Title
%%score 1 2
L:1/8
Q:1/4=100
M:4/4
K:Ab
V:1 treble nm="Grand Piano, SOPRANO ALTO"
V:2 bass nm="Grand Piano, TENOR BASS"
V:1
 z4 z2 [CE]>[CA] | [Ec]>[Ec] [Ec]>[=D_c] [E=c]2 E>[EG] | [EB]>[EB] [EB]>[E=A] [EB]2 [EB]>[Ec] | %3
w: 1.~To~ Je|ru sa lem~ the~ new~ Come~ the~|tried~ and~ faith ful~ few~ Back~ to~|
 [Gd]>[Gd] [Gd]>[Gd] [Gd]>[Gd] [Ae]>[Ed] | [Ec]6 [CE]>[CA] | [Ec]>[Ec] [Ec]>[=D_c] [E=c]2 E>[EG] | %6
w: Zi on's~ gold en~ glo ry~ once~ a|gain;~ High est~|praise~ our~ tongues~ em ploy,~ With~ the~|
 [EB]>[EB] [EB]>[E=A] [EB]2 [B,G]>[C_A] | [DB]>[DB] [DB]>[D=A] [DB]>[Fd] [Ec]>[DB] | [CA]6 [CE]2 | %9
w: ev er last ing~ joy,~ Now~ a~|thou sand~ voic es~ swell~ the~ glad~ re|frain.~ *|
 [EB]3 [Ec] [Ed]2 [DF]>[CE] | [CE]3 [CA] [Ec]2 [EB]>[Ec] | %11
w: ||
 [Gd]>[Gd] [Gd]>[Gd] [Gd]>[Gd] [Ae]>[Ed] | [Ec]6 [CE]2 | [DF]3 [DA] [Fd]2 [DF]>[CE] | %14
w: |||
 [CE]3 [CA] [Ec]2 [B,G]>[CA] | [DB]>[DB] [DB]>[D=A] [DB]>[Fd] [Ec]>[DB] | [CA]6 z2 |] %17
w: |||
V:2
 z4 z2 [A,,A,]>[A,,A,] | [A,,A,]>[A,,A,] [A,,A,]>[A,,A,] [A,,A,]2 [E,G,]>[E,B,] | %2
 [E,G,]>[E,G,] [E,G,]>[E,_G,] [E,=G,]2 [E,G,]>[E,A,] | %3
 [E,B,]>[E,B,] [E,B,]>[E,B,] [E,B,]>[E,B,] [E,C]>[E,B,] | [A,,A,]6 [A,,A,]>[A,,A,] | %5
 [A,,A,]>[A,,A,] [A,,A,]>[A,,A,] [A,,A,]2 [E,G,]>[E,B,] | %6
 [E,G,]>[E,G,] [E,G,]>[E,_G,] [E,=G,]2 E,>E, | %7
 [E,G,]>[E,G,] [E,G,]>[E,_G,] [E,=G,]>[E,B,] [E,A,]>[E,G,] | [A,,A,]6 z2 | %9
 z z/ [E,G,]/ [E,G,]>[E,A,] [E,B,]2 z2 | z z/ [A,,A,]/ [A,,A,]>[A,,A,] [A,,A,]2 [E,G,]>[E,A,] | %11
 [E,B,]>[E,B,] [E,B,]>[E,B,] [E,B,]>[E,B,] [E,C]>[E,B,] | [A,,A,]6 z2 | %13
 z z/ [D,A,]/ [D,A,]>[D,F,] [D,A,]2 z2 | z z/ [A,,A,]/ [A,,A,]>[A,,A,] [A,,A,]2 E,>E, | %15
 [E,G,]>[E,G,] [E,G,]>[E,_G,] [E,=G,]>[E,G,] [E,A,]>E, | [A,,E,]6 z2 |] %17

